packages/icons/svg/Fill/toggle-right.svg

<svg fill="none" height="24" viewBox="0 0 24 24" width="24" xmlns="http://www.w3.org/2000/svg"><path clip-rule="evenodd" d="m15 11c-.552 0-1 .448-1 1s.448 1 1 1 1-.448 1-1-.448-1-1-1zm0 3.9999c-1.654 0-3-1.346-3-3s1.346-2.99997 3-2.99997 3 1.34597 3 2.99997-1.346 3-3 3zm0-9.9999h-5.99998c-3.859 0-7 3.141-7 7s3.141 7 7 7h5.99998c3.859 0 7-3.141 7-7s-3.141-7-7-7z" fill="#6b7280" fill-rule="evenodd"/></svg>

<svg width="24" height="24" viewBox="0 0 24 24" fill="none" xmlns="http://www.w3.org/2000/svg">
<g id="Icon/Fill/toggle-right">
<path id="Mask" fill-rule="evenodd" clip-rule="evenodd" d="M15 11C14.448 11 14 11.448 14 12C14 12.552 14.448 13 15 13C15.552 13 16 12.552 16 12C16 11.448 15.552 11 15 11ZM15 15C13.346 15 12 13.654 12 12C12 10.346 13.346 9 15 9C16.654 9 18 10.346 18 12C18 13.654 16.654 15 15 15ZM15 5H9C5.141 5 2 8.141 2 12C2 15.859 5.141 19 9 19H15C18.859 19 22 15.859 22 12C22 8.141 18.859 5 15 5Z" fill="#000000"/>
</g>
</svg>
